src/assets/icon_location.svg

<svg width="16" height="16" viewBox="0 0 16 16" fill="none" xmlns="http://www.w3.org/2000/svg">
<path d="M12.2391 2.291L12.2403 2.29221C12.7962 2.85504 13.2389 3.52834 13.5414 4.27301C13.8439 5.01771 14 5.81819 14 6.62725C14 7.4363 13.8439 8.23678 13.5414 8.98148C13.2389 9.72615 12.7962 10.3995 12.2403 10.9623L12.2391 10.9635L7.99963 15.2859L3.76089 10.9635L3.75965 10.9623C3.20379 10.3995 2.76115 9.72615 2.45862 8.98148C2.15607 8.23678 2 7.4363 2 6.62725C2 5.81819 2.15607 5.01771 2.45862 4.27301C2.76115 3.52834 3.20379 2.85504 3.75965 2.29221L3.76085 2.29099C6.10319 -0.0969977 9.89681 -0.0969978 12.2391 2.291ZM6.20285 8.57238L6.20359 8.57314C6.6799 9.06576 7.31814 9.34201 7.99959 9.34201C8.68074 9.34201 9.32009 9.06596 9.79597 8.57276L9.79634 8.57238C10.2683 8.08223 10.5303 7.42175 10.5303 6.73672C10.5303 6.05169 10.2683 5.39121 9.79634 4.90106L9.79597 4.90068C9.32009 4.40748 8.68074 4.13143 7.99959 4.13143C7.31845 4.13143 6.6791 4.40748 6.20322 4.90068L6.20285 4.90107C5.73093 5.39121 5.46889 6.05169 5.46889 6.73672C5.46889 7.42175 5.73093 8.08223 6.20285 8.57238Z" fill="#F86262" stroke="#C42727"/>
</svg>

<?xml version="1.0" encoding="UTF-8"?>
<svg xmlns="http://www.w3.org/2000/svg" version="1.1" viewBox="0 0 16 16">
  <defs>
    <style>
      .cls-1 {
        fill: #f86262;
        stroke: #c42727;
      }

      .cls-2 {
        fill: #fff;
      }
    </style>
  </defs>
  <!-- Generator: Adobe Illustrator 28.6.0, SVG Export Plug-In . SVG Version: 1.2.0 Build 709)  -->
  <g>
    <g id="Layer_1">
      <circle class="cls-2" cx="8" cy="6.8" r="3.1"/>
      <path class="cls-1" d="M12.2,2.3h0c.6.6,1,1.2,1.3,2,.3.7.5,1.5.5,2.4s-.2,1.6-.5,2.4c-.3.7-.7,1.4-1.3,2h0s-4.2,4.3-4.2,4.3l-4.2-4.3h0c-.6-.6-1-1.2-1.3-2-.3-.7-.5-1.5-.5-2.4s.2-1.6.5-2.4c.3-.7.7-1.4,1.3-2h0c2.3-2.4,6.1-2.4,8.5,0ZM6.2,8.6h0c.5.5,1.1.8,1.8.8s1.3-.3,1.8-.8h0c.5-.5.7-1.2.7-1.8s-.3-1.3-.7-1.8h0c-.5-.5-1.1-.8-1.8-.8s-1.3.3-1.8.8h0c-.5.5-.7,1.2-.7,1.8s.3,1.3.7,1.8Z"/>
    </g>
  </g>
</svg>
